flaticon/weather/rainy.svg

<svg xmlns="http://www.w3.org/2000/svg" width="32" height="32" viewBox="0 0 24 24">
    <path d="M 12 4.398438 C 7.367188 4.398438 3.601562 8.167969 3.601562 12.800781 C 3.601562 14.128906 3.902344 15.402344 4.496094 16.578125 C 4.59375 16.777344 4.835938 16.855469 5.035156 16.757812 C 5.230469 16.65625 5.308594 16.414062 5.210938 16.21875 C 4.671875 15.152344 4.398438 14.003906 4.398438 12.800781 C 4.398438 8.609375 7.808594 5.199219 12 5.199219 C 16.191406 5.199219 19.601562 8.609375 19.601562 12.800781 C 19.601562 14.460938 19.074219 16.035156 18.082031 17.359375 C 17.949219 17.535156 17.984375 17.785156 18.160156 17.917969 C 18.230469 17.972656 18.316406 18 18.402344 18 C 18.523438 18 18.640625 17.945312 18.722656 17.839844 C 19.820312 16.378906 20.398438 14.632812 20.398438 12.800781 C 20.398438 8.167969 16.632812 4.398438 12 4.398438 Z M 12 4.398438"/>
    <path d="M18.398438 12.800781C18.398438 9.269531 15.527344 6.398438 12 6.398438 8.472656 6.398438 5.601562 9.269531 5.601562 12.800781 5.601562 13.6875 5.777344 14.550781 6.132812 15.359375 6.199219 15.507812 6.34375 15.597656 6.5 15.597656 6.550781 15.597656 6.605469 15.589844 6.660156 15.566406 6.859375 15.476562 6.953125 15.242188 6.863281 15.039062 6.554688 14.332031 6.398438 13.578125 6.398438 12.800781 6.398438 9.710938 8.910156 7.199219 12 7.199219 15.089844 7.199219 17.601562 9.710938 17.601562 12.800781 17.601562 13.441406 17.492188 14.070312 17.28125 14.667969 17.207031 14.875 17.316406 15.101562 17.523438 15.175781 17.734375 15.25 17.960938 15.140625 18.035156 14.933594 18.277344 14.25 18.398438 13.53125 18.398438 12.800781zM2.800781 12.398438L.398438 12.398438C.179688 12.398438 0 12.578125 0 12.800781 0 13.019531.179688 13.199219.398438 13.199219L2.800781 13.199219C3.019531 13.199219 3.199219 13.019531 3.199219 12.800781 3.199219 12.578125 3.019531 12.398438 2.800781 12.398438zM23.601562 12.398438L21.199219 12.398438C20.980469 12.398438 20.800781 12.578125 20.800781 12.800781 20.800781 13.019531 20.980469 13.199219 21.199219 13.199219L23.601562 13.199219C23.820312 13.199219 24 13.019531 24 12.800781 24 12.578125 23.820312 12.398438 23.601562 12.398438zM12 4C12.222656 4 12.398438 3.820312 12.398438 3.601562L12.398438 1.199219C12.398438.980469 12.222656.800781 12 .800781 11.777344.800781 11.601562.980469 11.601562 1.199219L11.601562 3.601562C11.601562 3.820312 11.777344 4 12 4zM18.503906 6.695312C18.609375 6.695312 18.710938 6.65625 18.789062 6.578125L21.082031 4.28125C21.238281 4.125 21.238281 3.875 21.082031 3.71875 20.925781 3.5625 20.671875 3.5625 20.515625 3.71875L18.222656 6.011719C18.066406 6.167969 18.066406 6.421875 18.222656 6.578125 18.300781 6.65625 18.402344 6.695312 18.503906 6.695312zM5.210938 6.578125C5.289062 6.65625 5.390625 6.695312 5.496094 6.695312 5.597656 6.695312 5.699219 6.65625 5.777344 6.578125 5.933594 6.421875 5.933594 6.167969 5.777344 6.011719L3.484375 3.71875C3.328125 3.5625 3.074219 3.5625 2.917969 3.71875 2.761719 3.875 2.761719 4.125 2.917969 4.28125zM15.4375 4.699219C15.488281 4.722656 15.542969 4.730469 15.59375 4.730469 15.75 4.730469 15.898438 4.640625 15.960938 4.488281L16.429688 3.382812C16.519531 3.179688 16.421875 2.945312 16.21875 2.859375 16.015625 2.773438 15.78125 2.867188 15.695312 3.070312L15.226562 4.175781C15.140625 4.378906 15.234375 4.613281 15.4375 4.699219zM8.183594 4.417969C8.246094 4.574219 8.394531 4.671875 8.554688 4.671875 8.605469 4.671875 8.65625 4.660156 8.703125 4.640625 8.910156 4.558594 9.007812 4.324219 8.925781 4.121094L8.476562 3.007812C8.390625 2.800781 8.160156 2.703125 7.953125 2.785156 7.75 2.867188 7.652344 3.101562 7.734375 3.308594zM3.898438 9.363281C3.984375 9.160156 3.890625 8.921875 3.6875 8.835938L2.582031 8.367188C2.378906 8.28125 2.144531 8.375 2.058594 8.578125 1.972656 8.78125 2.066406 9.019531 2.269531 9.105469L3.375 9.574219C3.425781 9.59375 3.480469 9.605469 3.53125 9.605469 3.6875 9.605469 3.835938 9.515625 3.898438 9.363281zM22.011719 8.753906C21.929688 8.550781 21.699219 8.453125 21.492188 8.53125L20.378906 8.984375C20.175781 9.066406 20.074219 9.296875 20.160156 9.503906 20.222656 9.660156 20.371094 9.753906 20.53125 9.753906 20.578125 9.753906 20.628906 9.746094 20.679688 9.726562L21.792969 9.273438C21.996094 9.191406 22.097656 8.957031 22.011719 8.753906zM11.316406 17.484375C11.394531 17.5625 11.496094 17.601562 11.601562 17.601562 11.703125 17.601562 11.804688 17.5625 11.882812 17.484375L13.082031 16.28125C13.238281 16.125 13.238281 15.875 13.082031 15.71875 12.925781 15.5625 12.671875 15.5625 12.515625 15.71875L11.316406 16.917969C11.160156 17.074219 11.160156 17.328125 11.316406 17.484375zM11.316406 17.484375"/>
    <path d="M14 15.199219C14.101562 15.199219 14.203125 15.160156 14.28125 15.082031L15.484375 13.882812C15.640625 13.726562 15.640625 13.472656 15.484375 13.316406 15.328125 13.160156 15.074219 13.160156 14.917969 13.316406L13.71875 14.515625C13.5625 14.671875 13.5625 14.925781 13.71875 15.082031 13.796875 15.160156 13.898438 15.199219 14 15.199219zM10.117188 21.316406L8.917969 22.515625C8.761719 22.671875 8.761719 22.925781 8.917969 23.082031 8.996094 23.160156 9.097656 23.199219 9.199219 23.199219 9.300781 23.199219 9.40625 23.160156 9.484375 23.082031L10.683594 21.882812C10.839844 21.726562 10.839844 21.472656 10.683594 21.316406 10.527344 21.160156 10.273438 21.160156 10.117188 21.316406zM13.082031 18.917969C12.925781 18.761719 12.671875 18.761719 12.515625 18.917969L11.316406 20.117188C11.160156 20.273438 11.160156 20.527344 11.316406 20.683594 11.394531 20.761719 11.496094 20.800781 11.601562 20.800781 11.703125 20.800781 11.804688 20.761719 11.882812 20.683594L13.082031 19.484375C13.238281 19.328125 13.238281 19.074219 13.082031 18.917969zM13.71875 18.28125C13.796875 18.359375 13.898438 18.398438 14 18.398438 14.101562 18.398438 14.203125 18.359375 14.28125 18.28125L15.484375 17.082031C15.640625 16.925781 15.640625 16.671875 15.484375 16.515625 15.328125 16.359375 15.074219 16.359375 14.917969 16.515625L13.71875 17.71875C13.5625 17.875 13.5625 18.125 13.71875 18.28125zM10.117188 14.917969L8.917969 16.117188C8.761719 16.273438 8.761719 16.527344 8.917969 16.683594 8.996094 16.761719 9.097656 16.800781 9.199219 16.800781 9.300781 16.800781 9.40625 16.761719 9.484375 16.683594L10.683594 15.484375C10.839844 15.328125 10.839844 15.074219 10.683594 14.917969 10.527344 14.761719 10.273438 14.761719 10.117188 14.917969zM7.71875 17.316406L6.515625 18.515625C6.359375 18.671875 6.359375 18.925781 6.515625 19.082031 6.59375 19.160156 6.699219 19.199219 6.800781 19.199219 6.902344 19.199219 7.003906 19.160156 7.082031 19.082031L8.28125 17.882812C8.4375 17.726562 8.4375 17.472656 8.28125 17.316406 8.125 17.160156 7.875 17.160156 7.71875 17.316406zM10.117188 18.117188L8.917969 19.316406C8.761719 19.472656 8.761719 19.726562 8.917969 19.882812 8.996094 19.960938 9.097656 20 9.199219 20 9.300781 20 9.40625 19.960938 9.484375 19.882812L10.683594 18.683594C10.839844 18.527344 10.839844 18.273438 10.683594 18.117188 10.527344 17.960938 10.273438 17.960938 10.117188 18.117188zM7.71875 20.515625L6.515625 21.71875C6.359375 21.875 6.359375 22.125 6.515625 22.28125 6.59375 22.359375 6.699219 22.398438 6.800781 22.398438 6.902344 22.398438 7.003906 22.359375 7.082031 22.28125L8.28125 21.082031C8.4375 20.925781 8.4375 20.671875 8.28125 20.515625 8.125 20.359375 7.875 20.359375 7.71875 20.515625zM11.601562 14.398438C11.703125 14.398438 11.804688 14.359375 11.882812 14.28125L13.082031 13.082031C13.238281 12.925781 13.238281 12.671875 13.082031 12.515625 12.925781 12.359375 12.671875 12.359375 12.515625 12.515625L11.316406 13.71875C11.160156 13.875 11.160156 14.125 11.316406 14.28125 11.394531 14.359375 11.496094 14.398438 11.601562 14.398438zM13.71875 20.917969L12.515625 22.117188C12.359375 22.273438 12.359375 22.527344 12.515625 22.683594 12.59375 22.761719 12.699219 22.800781 12.800781 22.800781 12.902344 22.800781 13.003906 22.761719 13.082031 22.683594L14.28125 21.484375C14.4375 21.328125 14.4375 21.074219 14.28125 20.917969 14.125 20.761719 13.875 20.761719 13.71875 20.917969zM16.117188 18.515625L14.917969 19.71875C14.761719 19.875 14.761719 20.125 14.917969 20.28125 14.996094 20.359375 15.097656 20.398438 15.199219 20.398438 15.300781 20.398438 15.40625 20.359375 15.484375 20.28125L16.683594 19.082031C16.839844 18.925781 16.839844 18.671875 16.683594 18.515625 16.527344 18.359375 16.273438 18.359375 16.117188 18.515625zM16.117188 18.515625"/>
</svg>

<svg xmlns="http://www.w3.org/2000/svg" width="32" height="32" viewBox="0 0 24 24">
    <path d="M12 4.398c-4.633 0-8.398 3.77-8.398 8.403 0 1.328.3 2.601.894 3.777.098.2.34.277.54.18a.406.406 0 0 0 .175-.54 7.503 7.503 0 0 1-.813-3.417c0-4.192 3.41-7.602 7.602-7.602 4.191 0 7.602 3.41 7.602 7.602 0 1.66-.528 3.234-1.52 4.558a.399.399 0 0 0 .32.641.403.403 0 0 0 .32-.16 8.33 8.33 0 0 0 1.676-5.04c0-4.632-3.765-8.402-8.398-8.402zm0 0"/>
    <path d="M18.398 12.8c0-3.53-2.87-6.402-6.398-6.402-3.527 0-6.398 2.872-6.398 6.403 0 .886.175 1.75.53 2.558a.4.4 0 0 0 .368.239c.05 0 .105-.008.16-.032.2-.09.293-.324.203-.527A5.606 5.606 0 0 1 12 7.2a5.606 5.606 0 0 1 5.281 7.469.4.4 0 0 0 .754.266 6.373 6.373 0 0 0 .363-2.133zm0 0M2.8 12.398H.399a.401.401 0 0 0 0 .801h2.403a.4.4 0 0 0 0-.8zm0 0M23.602 12.398h-2.403a.401.401 0 0 0 0 .801h2.403a.4.4 0 0 0 0-.8zm0 0M12 4c.223 0 .398-.18.398-.398V1.199a.398.398 0 1 0-.796 0v2.403c0 .218.175.398.398.398zm0 0M18.504 6.695c.105 0 .207-.039.285-.117l2.293-2.297a.396.396 0 0 0 0-.562.4.4 0 0 0-.566 0l-2.293 2.293a.4.4 0 0 0 .28.683zm0 0M5.21 6.578a.399.399 0 0 0 .567 0 .4.4 0 0 0 0-.566L3.484 3.719a.4.4 0 0 0-.566 0 .396.396 0 0 0 0 .562zm0 0M15.438 4.7c.05.023.105.03.156.03.156 0 .304-.09.367-.242l.469-1.105a.399.399 0 1 0-.734-.313l-.47 1.106a.399.399 0 0 0 .211.523zm0 0M8.184 4.418a.389.389 0 0 0 .52.223.399.399 0 0 0 .222-.52l-.45-1.113a.403.403 0 0 0-.523-.223.403.403 0 0 0-.219.524zm0 0M3.898 9.363a.403.403 0 0 0-.21-.527l-1.106-.469a.399.399 0 0 0-.523.211.403.403 0 0 0 .21.527l1.106.47c.05.019.105.03.156.03.156 0 .305-.09.367-.242zm0 0M22.012 8.754a.404.404 0 0 0-.52-.223l-1.113.453a.395.395 0 0 0-.219.52c.063.156.211.25.371.25a.413.413 0 0 0 .149-.027l1.113-.454a.397.397 0 0 0 .219-.52zm0 0M11.316 17.484a.399.399 0 0 0 .567 0l1.199-1.203a.396.396 0 0 0 0-.562.4.4 0 0 0-.566 0l-1.2 1.199a.4.4 0 0 0 0 .566zm0 0"/>
    <path d="M14 15.2c.102 0 .203-.04.281-.118l1.203-1.2a.4.4 0 0 0-.566-.566l-1.2 1.2a.4.4 0 0 0 .282.683zm0 0M10.117 21.316l-1.199 1.2a.4.4 0 0 0 .566.566l1.2-1.2a.4.4 0 0 0-.567-.566zm0 0M13.082 18.918a.4.4 0 0 0-.566 0l-1.2 1.2a.4.4 0 0 0 .567.566l1.199-1.2a.4.4 0 0 0 0-.566zm0 0M13.719 18.281a.396.396 0 0 0 .562 0l1.203-1.199a.4.4 0 0 0-.566-.566l-1.2 1.203a.396.396 0 0 0 0 .562zm0 0M10.117 14.918l-1.199 1.2a.4.4 0 0 0 .566.566l1.2-1.2a.4.4 0 0 0-.567-.566zm0 0M7.719 17.316l-1.203 1.2a.4.4 0 0 0 .566.566l1.2-1.2a.4.4 0 0 0 0-.566.396.396 0 0 0-.563 0zm0 0M10.117 18.117l-1.199 1.2a.4.4 0 0 0 .566.566l1.2-1.2a.4.4 0 0 0-.567-.566zm0 0M7.719 20.516l-1.203 1.203a.396.396 0 0 0 0 .562.405.405 0 0 0 .285.117c.101 0 .203-.039.281-.117l1.2-1.199a.4.4 0 0 0 0-.566.396.396 0 0 0-.563 0zm0 0M11.602 14.398c.101 0 .203-.039.28-.117l1.2-1.199a.4.4 0 0 0-.566-.566l-1.2 1.203a.399.399 0 1 0 .285.68zm0 0M13.719 20.918l-1.203 1.2a.4.4 0 0 0 .566.566l1.2-1.2a.4.4 0 0 0 0-.566.396.396 0 0 0-.563 0zm0 0M16.117 18.516l-1.199 1.203a.396.396 0 0 0 0 .562c.078.078.18.117.281.117.102 0 .207-.039.285-.117l1.2-1.199a.4.4 0 0 0-.567-.566zm0 0"/>
</svg>
